!!!OTL: 166. Hannchen. / [Die Heldin vom Bleichplatz.]
!!!COM: J. A. Hiller
!!!ODT: 1770
!!!ARE: Europa, Mitteleuropa, Deutschland
!!!SCT: B0166
!!!TXL: @@DE
!!!YEM: Copyright 1995, estate of Helmut Schaffrath.
**kern	**text
*ICvox	*
*Ivox	*
*M4/4	*
*met(c)	*
*clefG2	*
*k[f#c#g#]	*
*A:	*
!LO:TX:a:t=Commodetto.	!
{4e	Als
=1	=1
4a	ich
4a	auf
4cc#	mei-
4b	-ner
=2	=2
(4b/	Blei-
4a)	.
4a}	-che
{4a	ein
=3	=3
4.b	Stück-
8cc#	-chen
8ddL	Garn
8bJ	.
8aL	be-
8g#J	.
=4	=4
4a	-goß,
4r	.
4r}	.
{4e	da
=5	=5
4a	kam
4a	aus
4cc#	dem
4b	Ge-
=6	=6
(4b/	-ſträu-
4a)	.
4a}	-che
{4a	ein
=7	=7
4.b	Mäd-
8cc#	-chen
8ddL	a-
8bJ	.
8aL	-them-
8g#J	.
=8	=8
4a	-los.
4r	.
4r}	.
{4cc#	Das
=9	=9
4b	ſprach:
4ee	Ach
4dd#	habt
4cc#	Er-
=10	=10
(4cc#	-bar-
4b)	.
4b}	-men,
{4a	ſteht
=11	=11
4.g#	mei-
8b/	-nem
8b/L	Va-
8aJ	.
8g#L	-ter
8f#J	.
=12	=12
4e	bei!
4r	.
4r}	.
{4ee	Dort
=13	=13
8eeL	ſchlug
8dd#J	.
4dd#	im
4dd	Fall
4dd	dem
=14	=14
(4dd	Ar-
4cc#)	.
4cc#}	-men
{4a	das
=15	=15
4.b	lin-
8cc#	-ke
8ddL	Bein
8bJ	.
8aL	ent-
8g#J	.
=16	=16
4a	-ʒwei.
4r	.
4r}	.
==	==
!!!AGN: Ballade, Romanze
!!!ONB: ESAC (Essen Associative Code) Database: BOEHME
!!!AMT: simple quadruple
!!!AIN: vox
!!!EED: Helmut Schaffrath
!!!EEV: 1.0
!!!GTL: Balladen und Romanzen
!!@@COMMENT:"Romanʒe aus der komiſchen Oper: "Die Jagd". Text von Weiße. Muſik von J. Adam
!!Hiller. 1770 in Leipʒig ʒuerſt aufgeführt."
!!@@END:
!!!Text: Weisse
!!!URL-scan: https://archive.org/details/BoehmeVtLieder1895/page/n163/mode/2up
!!!ENC: Anna Maria Matuszewska
!!!EEV: 2024/19/06
*-	*-
